svg/UnitedNationsOCHA-Humanitarian/disaster_heavy_rain_icon_box.svg

<svg xmlns="http://www.w3.org/2000/svg" viewBox="0 0 32 32" enable-background="new 0 0 32 32"><path fill="#407cca" d="m25.6 0h-19.2c-3.52 0-6.4 2.88-6.4 6.4v19.2c0 3.52 2.88 6.4 6.4 6.4h19.2c3.521 0 6.4-2.88 6.4-6.4v-19.2c0-3.52-2.88-6.4-6.4-6.4m-18.13 26.381l2.167-5.953h.525l-2.229 6.125-.463-.172m2.478 0l2.167-5.953h.525l-2.228 6.125-.464-.172m2.478 0l2.167-5.953h.525l-2.228 6.125-.464-.172m2.478 0l2.167-5.953h.525l-2.229 6.125-.463-.172m2.478 0l2.168-5.953h.524l-2.228 6.125-.464-.172m2.942.172l-.464-.172 2.167-5.953h.525l-2.228 6.125m3.175-7.61c-.18 0-1.879 0-4.129 0-1.367 0-2.932 0-4.496 0-3.947 0-7.845 0-8.249 0-1.45 0-2.625-.547-2.625-2 0-1.446 1.175-2.622 2.625-2.622.264 0 .514.05.756.122 0-.019-.006-.038-.006-.063 0-1.691 1.372-3.06 3.063-3.06.07 0 .139.016.209.022-.003-.072-.022-.141-.022-.209 0-3.141 2.545-5.688 5.688-5.688 2.838 0 5.17 2.084 5.599 4.803.493-.188 1.026-.303 1.587-.303 2.486 0 4.502 2.01 4.502 4.5 0 2.487-2.02 4.498-4.502 4.498"/></svg>

<?xml version="1.0" encoding="utf-8"?>
<!-- Generator: Adobe Illustrator 16.0.3, SVG Export Plug-In . SVG Version: 6.00 Build 0)  -->
<!DOCTYPE svg PUBLIC "-//W3C//DTD SVG 1.1//EN" "http://www.w3.org/Graphics/SVG/1.1/DTD/svg11.dtd">
<svg version="1.1" id="Layer_1" xmlns="http://www.w3.org/2000/svg" xmlns:xlink="http://www.w3.org/1999/xlink" x="0px" y="0px"
	 width="32px" height="32px" viewBox="0 0 32 32" enable-background="new 0 0 32 32" xml:space="preserve">
<path fill="#407CCA" d="M25.6,0H6.4C2.88,0,0,2.88,0,6.4v19.2C0,29.12,2.88,32,6.4,32h19.2c3.521,0,6.4-2.88,6.4-6.4V6.4
	C32,2.88,29.12,0,25.6,0z M7.469,26.381l2.167-5.953h0.525l-2.229,6.125L7.469,26.381z M9.947,26.381l2.167-5.953h0.525
	l-2.228,6.125L9.947,26.381z M12.425,26.381l2.167-5.953h0.525l-2.228,6.125L12.425,26.381z M14.903,26.381l2.167-5.953h0.525
	l-2.229,6.125L14.903,26.381z M17.381,26.381l2.168-5.953h0.524l-2.228,6.125L17.381,26.381z M20.323,26.553l-0.464-0.172
	l2.167-5.953h0.525L20.323,26.553z M23.498,18.943c-0.18,0-1.879,0-4.129,0c-1.367,0-2.932,0-4.496,0c-3.947,0-7.845,0-8.249,0
	c-1.45,0-2.625-0.547-2.625-2c0-1.446,1.175-2.622,2.625-2.622c0.264,0,0.514,0.05,0.756,0.122c0-0.019-0.006-0.038-0.006-0.063
	c0-1.691,1.372-3.06,3.063-3.06c0.07,0,0.139,0.016,0.209,0.022c-0.003-0.072-0.022-0.141-0.022-0.209
	c0-3.141,2.545-5.688,5.688-5.688c2.838,0,5.17,2.084,5.599,4.803c0.493-0.188,1.026-0.303,1.587-0.303
	c2.486,0,4.502,2.013,4.502,4.5C28,16.932,25.984,18.943,23.498,18.943z"/>
</svg>
